apps/scalable/pdfsam.svg

<svg xmlns="http://www.w3.org/2000/svg" style="isolation:isolate" width="256" height="256"><g filter="url(#a)"><linearGradient id="b" x1=".233" x2=".933" y1="-.071" y2=".924" gradientTransform="matrix(244.648 0 0 228.338 5.676 11.947)" gradientUnits="userSpaceOnUse"><stop offset="0%" stop-color="#e8e8e8"/><stop offset="100%" stop-color="#f5f5f5"/></linearGradient><path fill="url(#b)" d="M165.685 11.947c74.055 0 84.639 10.557 84.639 84.544v59.251c0 73.986-10.584 84.543-84.639 84.543h-75.37c-74.055 0-84.639-10.557-84.639-84.543V96.491c0-73.987 10.584-84.544 84.639-84.544h75.37z"/></g><defs><filter id="a" width="400%" height="400%" x="-200%" y="-200%" color-interpolation-filters="sRGB" filterUnits="objectBoundingBox"><feGaussianBlur xmlns="http://www.w3.org/2000/svg" in="SourceGraphic" stdDeviation="4.294"/><feOffset xmlns="http://www.w3.org/2000/svg" dy="4" result="pf_100_offsetBlur"/><feFlood xmlns="http://www.w3.org/2000/svg" flood-opacity=".4"/><feComposite xmlns="http://www.w3.org/2000/svg" in2="pf_100_offsetBlur" operator="in" result="pf_100_dropShadow"/><feBlend xmlns="http://www.w3.org/2000/svg" in="SourceGraphic" in2="pf_100_dropShadow"/></filter></defs><linearGradient id="c" x1=".51" x2=".512" y1="1.06" y2=".158" gradientTransform="matrix(241.314 0 0 50.535 7.019 11.947)" gradientUnits="userSpaceOnUse"><stop offset="0%" stop-color="#009a56"/><stop offset="100%" stop-color="#46a926"/></linearGradient><path fill="url(#c)" d="M165.685 11.947c60.867 0 78.171 6.766 82.648 50.386-17.333 0-210.666.334-241.314.002 4.54-43.296 22.598-50.388 83.296-50.388h75.37z"/><path fill="#EAB305" d="M37.342 127.952c11.837-26.887 44.3-12.226 43.908-37.78 26.041 12.859-4.846 41.287 14.092 58.822-25.069 7.385-27.029-22.428-58-21.042z"/><path fill="#E3DFD5" fill-opacity=".996" d="M111.488 95.613v4.129h99.103v-4.129h-99.103zm0 16.517v4.13h99.103v-4.13h-99.103zm0 16.441v4.129h99.103v-4.129h-99.103zm0 16.517v4.129h99.103v-4.129h-99.103zm-66.069 16.518v4.129l165.172.076v-4.129l-165.172-.076zm0 16.517v4.129h165.172v-4.129H45.419zm0 16.517v4.129h123.879v-4.129H45.419z"/><circle fill="#EFEFEF" cx="72.5" cy="122.833" r="7.5" vector-effect="non-scaling-stroke"/><g opacity=".4"><g opacity=".4"><linearGradient id="d" x2="0" y1=".5" y2="-.5"><stop offset="0%" stop-opacity=".498"/><stop offset="12.5%" stop-opacity=".098"/><stop offset="92.5%" stop-opacity=".098" stop-color="#fff"/><stop offset="100%" stop-color="#fff"/></linearGradient><path fill="none" stroke="url(#d)" stroke-linecap="round" stroke-linejoin="round" stroke-width="4.077" d="M165.685 11.947c74.055 0 84.639 10.557 84.639 84.544v59.251c0 73.986-10.584 84.543-84.639 84.543h-75.37c-74.055 0-84.639-10.557-84.639-84.543V96.491c0-73.987 10.584-84.544 84.639-84.544h75.37z" vector-effect="non-scaling-stroke"/></g></g><g fill="#089C51"><path d="M179.647 128.188l-.02.009c-.252.004-.582.023-.991.064-.41.037-.87.126-1.379.263-.458.122-.821.291-1.088.505-.269.207-.46.452-.574.735a2.096 2.096 0 0 0-.165.936c.013.345.1.705.177 1.104 1.72 9.595 3.312 19.221 4.912 28.843l3.913-14.6-4.785-17.859zm6.272 23.405l-4.26 15.895.178 1.068 6.294 10.106 3.056 11.401c.411 1.535 1.009 2.876 1.793 4.019.785 1.144 1.702 2.051 2.758 2.723a8.788 8.788 0 0 0 3.531 1.287c1.272.189 2.602.098 3.989-.274 1.387-.371 2.584-.958 3.59-1.758a8.856 8.856 0 0 0 2.377-2.868c.578-1.11.934-2.358 1.066-3.748.107-1.382-.047-2.842-.457-4.378-.412-1.535-1.007-2.863-1.785-3.982-.809-1.137-1.739-2.041-2.795-2.713a8.824 8.824 0 0 0-3.519-1.249 9.085 9.085 0 0 0-3.952.263c-1.001.296-1.964.76-3.11.655a2.44 2.44 0 0 1-1.101-.372 2.749 2.749 0 0 1-.777-.875c-.182-.368-.349-.836-.501-1.406l-6.375-23.794zm0 11.594a2.45 2.45 0 1 1 0 4.898 2.45 2.45 0 0 1 0-4.898zm13.992 17.923c1.051-.052 2.007.264 2.867.949 1.116.896 1.932 2.31 2.45 4.242.524 1.957.53 3.614.019 4.972-.537 1.365-1.547 2.247-3.033 2.645-1.486.398-2.791.137-3.913-.783-1.148-.914-1.983-2.35-2.508-4.307-.517-1.932-.505-3.567.038-4.907.512-1.358 1.511-2.238 2.997-2.636a5.259 5.259 0 0 1 1.083-.175z"/><path d="M192.191 128.188l-.003.009h-.003l-1.499 5.595h.003l-11.145 41.593c-.153.57-.32 1.039-.502 1.407a2.723 2.723 0 0 1-.777.874 2.388 2.388 0 0 1-1.101.372c-1.145.106-2.109-.359-3.11-.654a9.07 9.07 0 0 0-3.952-.263 8.803 8.803 0 0 0-3.518 1.248c-1.057.673-1.987 1.577-2.796 2.714-.778 1.119-1.373 2.446-1.785 3.982-.411 1.535-.564 2.995-.457 4.378.132 1.389.488 2.637 1.066 3.748a8.855 8.855 0 0 0 2.377 2.867c1.007.801 2.203 1.387 3.59 1.759 1.387.371 2.718.463 3.989.273a8.786 8.786 0 0 0 3.531-1.286c1.057-.673 1.974-1.579 2.758-2.723s1.382-2.484 1.794-4.02l3.055-11.4 6.295-10.107c2.235-12.217 3.851-24.557 6.203-36.75.081-.395.165-.76.178-1.104a2.406 2.406 0 0 0-.165-.936 1.757 1.757 0 0 0-.575-.735c-.266-.214-.629-.383-1.087-.505a8.35 8.35 0 0 0-1.379-.263 12.512 12.512 0 0 0-.963-.062l-.022-.011zm-6.272 34.999a2.45 2.45 0 1 1 0 4.898 2.45 2.45 0 0 1 0-4.898zm-13.993 17.923c.35.019.711.075 1.083.175 1.486.398 2.486 1.278 2.998 2.636.543 1.34.555 2.975.037 4.907-.524 1.956-1.359 3.393-2.507 4.307-1.122.92-2.427 1.181-3.913.783-1.486-.398-2.496-1.28-3.033-2.645-.512-1.358-.506-3.016.018-4.972.518-1.932 1.334-3.346 2.45-4.242.86-.685 1.816-1.001 2.867-.949z"/></g></svg>

<svg xmlns="http://www.w3.org/2000/svg" style="isolation:isolate" width="256" height="256" viewBox="0 0 256 256">
 <g filter="url(#maZBBbXs53qAUpI8WRSKgfQ7mUJQO0Ct)">
  <linearGradient id="_lgradient_0" x1=".233" x2=".933" y1="-.071" y2=".924" gradientTransform="matrix(244.648,0,0,228.338,5.676,11.947)" gradientUnits="userSpaceOnUse">
   <stop offset="0%" style="stop-color:rgb(232,232,232)"/>
   <stop offset="100%" style="stop-color:rgb(245,245,245)"/>
  </linearGradient>
  <path fill="url(#_lgradient_0)" d="M 165.685 11.947 C 239.74 11.947 250.324 22.504 250.324 96.491 L 250.324 155.742 C 250.324 229.728 239.74 240.285 165.685 240.285 L 90.315 240.285 C 16.26 240.285 5.676 229.728 5.676 155.742 L 5.676 96.491 C 5.676 22.504 16.26 11.947 90.315 11.947 L 165.685 11.947 L 165.685 11.947 Z"/>
 </g>
 <defs>
  <filter id="maZBBbXs53qAUpI8WRSKgfQ7mUJQO0Ct" width="400%" height="400%" x="-200%" y="-200%" color-interpolation-filters="sRGB" filterUnits="objectBoundingBox">
   <feGaussianBlur xmlns="http://www.w3.org/2000/svg" in="SourceGraphic" stdDeviation="4.294"/>
   <feOffset xmlns="http://www.w3.org/2000/svg" dx="0" dy="4" result="pf_100_offsetBlur"/>
   <feFlood xmlns="http://www.w3.org/2000/svg" flood-opacity=".4"/>
   <feComposite xmlns="http://www.w3.org/2000/svg" in2="pf_100_offsetBlur" operator="in" result="pf_100_dropShadow"/>
   <feBlend xmlns="http://www.w3.org/2000/svg" in="SourceGraphic" in2="pf_100_dropShadow" mode="normal"/>
  </filter>
 </defs>
 <g>
  <linearGradient id="_lgradient_1" x1=".51" x2=".512" y1="1.06" y2=".158" gradientTransform="matrix(241.314,0,0,50.535,7.019,11.947)" gradientUnits="userSpaceOnUse">
   <stop offset="0%" style="stop-color:rgb(0,154,86)"/>
   <stop offset="100%" style="stop-color:rgb(70,169,38)"/>
  </linearGradient>
  <path fill="url(#_lgradient_1)" d="M 165.685 11.947 C 226.552 11.947 243.856 18.713 248.333 62.333 C 231 62.333 37.667 62.667 7.019 62.335 C 11.559 19.039 29.617 11.947 90.315 11.947 L 165.685 11.947 L 165.685 11.947 Z"/>
  <path fill="#EAB305" d="M 37.342 127.952 C 49.179 101.065 81.642 115.726 81.25 90.172 C 107.291 103.031 76.404 131.459 95.342 148.994 C 70.273 156.379 68.313 126.566 37.342 127.952 Z"/>
  <path fill="#E3DFD5" fill-opacity=".996" d="M 111.488 95.613 L 111.488 99.742 L 210.591 99.742 L 210.591 95.613 L 111.488 95.613 L 111.488 95.613 Z M 111.488 112.13 L 111.488 116.26 L 210.591 116.26 L 210.591 112.13 L 111.488 112.13 L 111.488 112.13 Z M 111.488 128.571 L 111.488 132.7 L 210.591 132.7 L 210.591 128.571 L 111.488 128.571 L 111.488 128.571 Z M 111.488 145.088 L 111.488 149.217 L 210.591 149.217 L 210.591 145.088 L 111.488 145.088 L 111.488 145.088 Z M 45.419 161.606 L 45.419 165.735 L 210.591 165.811 L 210.591 161.682 L 45.419 161.606 L 45.419 161.606 Z M 45.419 178.123 L 45.419 182.252 L 210.591 182.252 L 210.591 178.123 L 45.419 178.123 L 45.419 178.123 Z M 45.419 194.64 L 45.419 198.769 L 169.298 198.769 L 169.298 194.64 L 45.419 194.64 L 45.419 194.64 Z"/>
  <circle fill="#EFEFEF" cx="72.5" cy="122.833" r="7.5" vector-effect="non-scaling-stroke"/>
 </g>
 <g style="opacity:0.4">
  <g opacity=".4">
   <linearGradient id="_lgradient_2" x1="0" x2="0" y1=".5" y2="-.5">
    <stop offset="0%" stop-opacity=".498" style="stop-color:rgb(0,0,0)"/>
    <stop offset="12.5%" stop-opacity=".098" style="stop-color:rgb(0,0,0)"/>
    <stop offset="92.5%" stop-opacity=".098" style="stop-color:rgb(255,255,255)"/>
    <stop offset="100%" style="stop-color:rgb(255,255,255)"/>
   </linearGradient>
   <path fill="none" stroke="url(#_lgradient_2)" stroke-linecap="round" stroke-linejoin="round" stroke-width="4.077" d="M 165.685 11.947 C 239.74 11.947 250.324 22.504 250.324 96.491 L 250.324 155.742 C 250.324 229.728 239.74 240.285 165.685 240.285 L 90.315 240.285 C 16.26 240.285 5.676 229.728 5.676 155.742 L 5.676 96.491 C 5.676 22.504 16.26 11.947 90.315 11.947 L 165.685 11.947 L 165.685 11.947 Z" vector-effect="non-scaling-stroke"/>
  </g>
 </g>
 <g>
  <path fill="#089C51" d="M 179.647 128.188 L 179.627 128.197 C 179.375 128.201 179.045 128.22 178.636 128.261 C 178.226 128.298 177.766 128.387 177.257 128.524 C 176.799 128.646 176.436 128.815 176.169 129.029 C 175.9 129.236 175.709 129.481 175.595 129.764 C 175.472 130.043 175.417 130.355 175.43 130.7 C 175.443 131.045 175.53 131.405 175.607 131.804 C 177.327 141.399 178.919 151.025 180.519 160.647 L 184.432 146.047 L 179.647 128.188 L 179.647 128.188 Z M 185.919 151.593 L 181.659 167.488 C 181.719 167.844 181.777 168.2 181.837 168.556 L 188.131 178.662 L 191.187 190.063 C 191.598 191.598 192.196 192.939 192.98 194.082 C 193.765 195.226 194.682 196.133 195.738 196.805 C 196.794 197.478 197.972 197.908 199.269 198.092 C 200.541 198.281 201.871 198.19 203.258 197.818 C 204.645 197.447 205.842 196.86 206.848 196.06 C 207.855 195.259 208.647 194.303 209.225 193.192 C 209.803 192.082 210.159 190.834 210.291 189.444 C 210.398 188.062 210.244 186.602 209.834 185.066 C 209.422 183.531 208.827 182.203 208.049 181.084 C 207.24 179.947 206.31 179.043 205.254 178.371 C 204.173 177.705 203 177.288 201.735 177.122 C 200.463 176.932 199.136 176.986 197.783 177.385 C 196.782 177.681 195.819 178.145 194.673 178.04 C 194.242 177.998 193.875 177.864 193.572 177.668 C 193.262 177.445 193.003 177.154 192.795 176.793 C 192.613 176.425 192.446 175.957 192.294 175.387 L 185.919 151.593 L 185.919 151.593 Z M 185.919 163.187 C 187.271 163.187 188.368 164.283 188.368 165.636 C 188.368 166.285 188.11 166.908 187.651 167.368 C 187.191 167.827 186.568 168.085 185.919 168.085 C 185.269 168.085 184.646 167.827 184.187 167.368 C 183.727 166.908 183.469 166.285 183.469 165.636 C 183.47 164.283 184.566 163.187 185.919 163.187 L 185.919 163.187 L 185.919 163.187 Z M 199.911 181.11 C 200.962 181.058 201.918 181.374 202.778 182.059 C 203.894 182.955 204.71 184.369 205.228 186.301 C 205.752 188.258 205.758 189.915 205.247 191.273 C 204.71 192.638 203.7 193.52 202.214 193.918 C 200.728 194.316 199.423 194.055 198.301 193.135 C 197.153 192.221 196.318 190.785 195.793 188.828 C 195.276 186.896 195.288 185.261 195.831 183.921 C 196.343 182.563 197.342 181.683 198.828 181.285 C 199.2 181.186 199.561 181.128 199.911 181.11 L 199.911 181.11 L 199.911 181.11 Z"/>
  <path fill="#089C51" d="M 192.191 128.188 L 192.188 128.197 C 192.187 128.197 192.185 128.197 192.185 128.197 L 190.686 133.792 L 190.689 133.792 L 179.544 175.385 C 179.391 175.955 179.224 176.424 179.042 176.792 C 178.835 177.153 178.575 177.444 178.265 177.666 C 177.962 177.863 177.596 177.999 177.164 178.038 C 176.019 178.144 175.055 177.679 174.054 177.384 C 172.701 176.984 171.374 176.931 170.102 177.121 C 168.837 177.286 167.665 177.703 166.584 178.369 C 165.527 179.042 164.597 179.946 163.788 181.083 C 163.01 182.202 162.415 183.529 162.003 185.065 C 161.592 186.6 161.439 188.06 161.546 189.443 C 161.678 190.832 162.034 192.08 162.612 193.191 C 163.191 194.302 163.982 195.258 164.989 196.058 C 165.996 196.859 167.192 197.445 168.579 197.817 C 169.966 198.188 171.297 198.28 172.568 198.09 C 173.865 197.907 175.043 197.476 176.099 196.804 C 177.156 196.131 178.073 195.225 178.857 194.081 C 179.641 192.937 180.239 191.597 180.651 190.061 L 183.706 178.661 L 190.001 168.554 C 192.236 156.337 193.852 143.997 196.204 131.804 C 196.285 131.409 196.369 131.044 196.382 130.7 C 196.396 130.387 196.321 130.019 196.217 129.764 C 196.101 129.481 195.912 129.236 195.642 129.029 C 195.376 128.815 195.013 128.646 194.555 128.524 C 194.046 128.387 193.585 128.299 193.176 128.261 C 192.779 128.223 192.463 128.203 192.213 128.199 L 192.191 128.188 L 192.191 128.188 Z M 185.919 163.187 C 187.271 163.187 188.368 164.283 188.368 165.636 C 188.368 166.285 188.11 166.908 187.651 167.368 C 187.191 167.827 186.568 168.085 185.919 168.085 C 185.269 168.085 184.646 167.827 184.187 167.368 C 183.727 166.908 183.469 166.285 183.469 165.636 C 183.47 164.283 184.566 163.187 185.919 163.187 L 185.919 163.187 L 185.919 163.187 Z M 171.926 181.11 C 172.276 181.129 172.637 181.185 173.009 181.285 C 174.495 181.683 175.495 182.563 176.007 183.921 C 176.55 185.261 176.562 186.896 176.044 188.828 C 175.52 190.784 174.685 192.221 173.537 193.135 C 172.415 194.055 171.11 194.316 169.624 193.918 C 168.138 193.52 167.128 192.638 166.591 191.273 C 166.079 189.915 166.085 188.257 166.609 186.301 C 167.127 184.369 167.943 182.955 169.059 182.059 C 169.919 181.374 170.875 181.058 171.926 181.11 L 171.926 181.11 L 171.926 181.11 Z"/>
 </g>
</svg>
